src/img/quote.svg

<svg version="1.2" xmlns="http://www.w3.org/2000/svg" viewBox="0 0 42 37" width="42" height="37"><style>.a{fill:#ffb700}</style><path class="a" d="m42 2.1v10.3q0 7.6-1.3 11.9-1.4 4.4-5 7.8-2.9 2.9-7.2 4.7c-1 0.5-2.3 0-2.8-1l-1.5-3.3c-0.6-1.1-0.1-2.4 1-2.9q3.6-1.6 5.4-4 2.3-3.1 2.4-8.2h-6.2c-1.2 0-2.2-1-2.2-2.2v-13.1c0-1.1 1-2.1 2.2-2.1h13c1.2 0 2.2 1 2.2 2.1zm-40.2 33.7l-1.6-3.3c-0.5-1.1 0-2.4 1.1-2.9q3.6-1.6 5.4-4 2.2-3.1 2.4-8.2h-6.3c-1.2 0-2.2-1-2.2-2.2v-13.1c0-1.1 1-2.1 2.2-2.1h13.1c1.2 0 2.1 1 2.1 2.1v10.3q0 7.6-1.3 12-1.3 4.3-4.9 7.7-3 2.9-7.2 4.7c-1.1 0.5-2.3 0-2.8-1z"/></svg>

<svg version="1.2" xmlns="http://www.w3.org/2000/svg" width="42" height="37"><path d="M42 2.1v10.3q0 7.6-1.3 11.9-1.4 4.4-5 7.8-2.9 2.9-7.2 4.7c-1 .5-2.3 0-2.8-1l-1.5-3.3c-.6-1.1-.1-2.4 1-2.9q3.6-1.6 5.4-4 2.3-3.1 2.4-8.2h-6.2c-1.2 0-2.2-1-2.2-2.2V2.1c0-1.1 1-2.1 2.2-2.1h13C41 0 42 1 42 2.1zM1.8 35.8.2 32.5c-.5-1.1 0-2.4 1.1-2.9q3.6-1.6 5.4-4 2.2-3.1 2.4-8.2H2.8c-1.2 0-2.2-1-2.2-2.2V2.1C.6 1 1.6 0 2.8 0h13.1C17.1 0 18 1 18 2.1v10.3q0 7.6-1.3 12-1.3 4.3-4.9 7.7-3 2.9-7.2 4.7c-1.1.5-2.3 0-2.8-1z" style="fill:#ffb700"/></svg>
